svgs/duotone/circle-camera.svg

<svg xmlns="http://www.w3.org/2000/svg" viewBox="0 0 512 512"><!--! Font Awesome Pro 6.6.0 by @fontawesome - https://fontawesome.com License - https://fontawesome.com/license (Commercial License) Copyright 2024 Fonticons, Inc. --><defs><style>.fa-secondary{opacity:.4}</style></defs><path class="fa-secondary" d="M0 256a256 256 0 1 0 512 0A256 256 0 1 0 0 256zm128-64c0-17.7 14.3-32 32-32l36 0 6.2-16.4c3.5-9.4 12.5-15.6 22.5-15.6l62.7 0c10 0 19 6.2 22.5 15.6L316 160l36 0c17.7 0 32 14.3 32 32l0 128c0 17.7-14.3 32-32 32l-192 0c-17.7 0-32-14.3-32-32l0-128z"/><path class="fa-primary" d="M202.2 143.6L196 160l-36 0c-17.7 0-32 14.3-32 32l0 128c0 17.7 14.3 32 32 32l192 0c17.7 0 32-14.3 32-32l0-128c0-17.7-14.3-32-32-32l-36 0-6.2-16.4c-3.5-9.4-12.5-15.6-22.5-15.6l-62.7 0c-10 0-19 6.2-22.5 15.6zM256 208a48 48 0 1 1 0 96 48 48 0 1 1 0-96z"/></svg>

<svg xmlns="http://www.w3.org/2000/svg" viewBox="0 0 512 512"><!--! Font Awesome Pro 6.4.0 by @fontawesome - https://fontawesome.com License - https://fontawesome.com/license (Commercial License) Copyright 2023 Fonticons, Inc. --><defs><style>.fa-secondary{opacity:.4}</style></defs><path class="fa-primary" d="M202.2 143.6L196 160H160c-17.7 0-32 14.3-32 32V320c0 17.7 14.3 32 32 32H352c17.7 0 32-14.3 32-32V192c0-17.7-14.3-32-32-32H316l-6.2-16.4c-3.5-9.4-12.5-15.6-22.5-15.6H224.6c-10 0-19 6.2-22.5 15.6zM256 208a48 48 0 1 1 0 96 48 48 0 1 1 0-96z"/><path class="fa-secondary" d="M256 512A256 256 0 1 0 256 0a256 256 0 1 0 0 512zM202.2 143.6c3.5-9.4 12.5-15.6 22.5-15.6h62.7c10 0 19 6.2 22.5 15.6L316 160h36c17.7 0 32 14.3 32 32V320c0 17.7-14.3 32-32 32H160c-17.7 0-32-14.3-32-32V192c0-17.7 14.3-32 32-32h36l6.2-16.4z"/></svg>
